X: 26964
T: Miss Charters
R: reel
M: 4/4
K: Gminor
d|:gabag2fd|cdfg agfa|gabag2fd|1 cdfA G2Gd:|2 cdfA G2Gc||
|:B/c/d BG BdgB|A/B/c AF AcfA|1 B/c/d BG BdgB|
AG^FAG2GA:|2 Bcd=e fgfd|cfcAG2G||

